X:2065
T:Branle de Village
R:Branle
A:Normandie
O:France
M:2/4
L:1/8
Q:1/4=84
K:D
fa ag| fa ag|fa ag|fe d2:| de f/2e/2f|!
 ff e2|df ed|=cB A2|de f/2e/2d| ff e2|daag|fe d2||


